icon/pk/monkey-zodiac.svg

<svg viewBox="0 0 48 48" fill="none" xmlns="http://www.w3.org/2000/svg" height="1em" width="1em">
  <path d="M21.5925 18.1345C22.9329 16.6704 24.5079 13.1567 20.0846 10.8141C19.0793 10.1634 18.5 8.50002 17.5714 5.44585C13.7178 3.33107 5 3.00018 4 14.0004V44" stroke="black" stroke-width="4" stroke-linecap="round" stroke-linejoin="round"/>
  <path d="M17 25C21.5818 26.673 28.0333 30.2543 32 41C33.5333 44.7543 40.5067 45.8705 43.5 40C44.4978 38.0432 44 34.5035 39.5818 32.4503C36.4615 31.0002 34 26 38.5 24.0003C40.3478 23.397 42.4291 24.08 44 27.0002" stroke="black" stroke-width="4" stroke-linecap="round" stroke-linejoin="round"/>
  <path d="M29 35.0004C24.6552 33.8942 15.7724 34.5187 15 44" stroke="black" stroke-width="4" stroke-linecap="round" stroke-linejoin="round"/>
</svg>

<svg width="48" height="48" fill="none" xmlns="http://www.w3.org/2000/svg"><path d="M21.593 18.134c1.34-1.464 2.915-4.977-1.508-7.32-1.006-.65-1.585-2.314-2.514-5.368C13.718 3.33 5 3 4 14v30" stroke="#000" stroke-width="4" stroke-linecap="round" stroke-linejoin="round"/><path d="M17 25c4.582 1.673 11.033 5.254 15 16 1.533 3.754 8.507 4.87 11.5-1 .998-1.957.5-5.496-3.918-7.55C36.462 31 34 26 38.5 24c1.848-.603 3.93.08 5.5 3" stroke="#000" stroke-width="4" stroke-linecap="round" stroke-linejoin="round"/><path d="M29 35c-4.345-1.106-13.228-.481-14 9" stroke="#000" stroke-width="4" stroke-linecap="round" stroke-linejoin="round"/></svg>
